SVG_Azure_All/Virtual Machine Image Definition.svg

<?xml version="1.0" encoding="UTF-8" standalone="no"?>
<!-- Generated by Microsoft Visio, SVG Export Virtual Machine Image Definition.svg Page-1 -->

<svg
   xmlns:dc="http://purl.org/dc/elements/1.1/"
   xmlns:cc="http://creativecommons.org/ns#"
   xmlns:rdf="http://www.w3.org/1999/02/22-rdf-syntax-ns#"
   xmlns:svg="http://www.w3.org/2000/svg"
   xmlns="http://www.w3.org/2000/svg"
   xmlns:sodipodi="http://sodipodi.sourceforge.net/DTD/sodipodi-0.dtd"
   xmlns:inkscape="http://www.inkscape.org/namespaces/inkscape"
   width="0.78734595in"
   height="0.78735733in"
   viewBox="0 0 56.688816 56.690038"
   xml:space="preserve"
   class="st6"
   version="1.1"
   id="svg61"
   sodipodi:docname="Virtual Machine Image Definition.svg"
   style="font-size:12px;overflow:visible;color-interpolation-filters:sRGB;fill:none;fill-rule:evenodd;stroke-linecap:square;stroke-miterlimit:3"
   inkscape:version="0.92.5 (2060ec1f9f, 2020-04-08)"><metadata
   id="metadata65"><rdf:RDF><cc:Work
       rdf:about=""><dc:format>image/svg+xml</dc:format><dc:type
         rdf:resource="http://purl.org/dc/dcmitype/StillImage" /></cc:Work></rdf:RDF></metadata><sodipodi:namedview
   pagecolor="#ffffff"
   bordercolor="#666666"
   borderopacity="1"
   objecttolerance="10"
   gridtolerance="10"
   guidetolerance="10"
   inkscape:pageopacity="0"
   inkscape:pageshadow="2"
   inkscape:window-width="640"
   inkscape:window-height="480"
   id="namedview63"
   showgrid="false"
   inkscape:zoom="1.4193119"
   inkscape:cx="37.795128"
   inkscape:cy="37.786218"
   inkscape:window-x="0"
   inkscape:window-y="0"
   inkscape:window-maximized="0"
   inkscape:current-layer="svg61" />
	<style
   type="text/css"
   id="style2">
	<![CDATA[
		.st1 {fill:url(#grad0-6);stroke:none;stroke-linecap:butt;stroke-width:34}
		.st2 {fill:#773adc;stroke:none;stroke-linecap:butt;stroke-width:34}
		.st3 {fill:#50e6ff;stroke:none;stroke-linecap:butt;stroke-width:34}
		.st4 {fill:#c3f1ff;stroke:none;stroke-linecap:butt;stroke-width:34}
		.st5 {fill:#9cebff;stroke:none;stroke-linecap:butt;stroke-width:34}
		.st6 {fill:none;fill-rule:evenodd;font-size:12px;overflow:visible;stroke-linecap:square;stroke-miterlimit:3}
	]]>
	</style>

	<defs
   id="Patterns_And_Gradients">
		<linearGradient
   id="grad0-6"
   x1="0"
   y1="60.176628"
   x2="50.153135"
   y2="60.176628"
   gradientTransform="scale(0.88469046,1.1303389)"
   gradientUnits="userSpaceOnUse">
			<stop
   offset="0"
   stop-color="#32bedd"
   stop-opacity="1"
   id="stop4" />
			<stop
   offset="0.36"
   stop-color="#34c1e0"
   stop-opacity="1"
   id="stop6" />
			<stop
   offset="0.63"
   stop-color="#3ccbe8"
   stop-opacity="1"
   id="stop8" />
			<stop
   offset="0.88"
   stop-color="#48dbf6"
   stop-opacity="1"
   id="stop10" />
			<stop
   offset="1"
   stop-color="#50e6ff"
   stop-opacity="1"
   id="stop12" />
		</linearGradient>
	</defs>
	<g
   id="g59"
   transform="translate(-34.000441,-34.004281)">
		<title
   id="title16">Page-1</title>
		<g
   id="group477-1"
   transform="translate(34,-34.0157)">
			<title
   id="title18">Virtual Machine Image Definition</title>
			<g
   id="group478-2">
				<title
   id="title20">Icon-compute-37</title>
				<g
   id="shape479-3">
					<title
   id="title22">Sheet.479</title>
					<path
   d="m 0,122.83 a 1.84177,1.88085 -180 0 0 1.84,1.88 h 40.68 a 1.84177,1.88085 -180 0 0 1.85,-1.88 V 69.9 A 1.84177,1.88085 -180 0 0 42.52,68.02 H 1.84 A 1.84177,1.88085 -180 0 0 0,69.9 Z"
   class="st1"
   id="path24"
   inkscape:connector-curvature="0"
   style="fill:url(#grad0-6);stroke:none;stroke-width:34;stroke-linecap:butt" />
				</g>
				<g
   id="shape480-7"
   transform="translate(23.6136,-3.325)">
					<title
   id="title27">Sheet.480</title>
					<path
   d="m 32.95,111.04 -9.44,-9.64 a 0.493319,0.503788 -180 0 0 -0.822199,0.33586 L 22.69,107.38 C 11.35,107.38 0,113.56 0,124.71 c 1.61,-2.49 9.87,-9.1 22.69,-9.1 v 5.4 a 0.493319,0.503788 -180 0 0 0.822199,0.33586 L 32.95,111.71 a 0.493319,0.503788 -180 0 0 0,-0.67172 z"
   class="st2"
   id="path29"
   inkscape:connector-curvature="0"
   style="fill:#773adc;stroke:none;stroke-width:34;stroke-linecap:butt" />
				</g>
				<g
   id="shape481-9"
   transform="translate(22.1994,-16.6586)">
					<title
   id="title32">Sheet.481</title>
					<path
   d="m 12.92,101.6 v 15.38 L 0,124.71 v -15.42 z"
   class="st3"
   id="path34"
   inkscape:connector-curvature="0"
   style="fill:#50e6ff;stroke:none;stroke-width:34;stroke-linecap:butt" />
				</g>
				<g
   id="shape482-11"
   transform="translate(9.24152,-32.0409)">
					<title
   id="title37">Sheet.482</title>
					<path
   d="M 25.88,116.98 12.96,124.71 0,116.98 12.96,109.26 Z"
   class="st4"
   id="path39"
   inkscape:connector-curvature="0"
   style="fill:#c3f1ff;stroke:none;stroke-width:34;stroke-linecap:butt" />
				</g>
				<g
   id="shape483-13"
   transform="translate(9.24152,-16.6586)">
					<title
   id="title42">Sheet.483</title>
					<path
   d="m 12.96,109.33 v 15.38 L 0,116.98 V 101.6 Z"
   class="st5"
   id="path44"
   inkscape:connector-curvature="0"
   style="fill:#9cebff;stroke:none;stroke-width:34;stroke-linecap:butt" />
				</g>
				<g
   id="shape484-15"
   transform="translate(9.24152,-16.6586)">
					<title
   id="title47">Sheet.484</title>
					<path
   d="m 0,116.98 12.96,-7.69 v 15.42 z"
   class="st4"
   id="path49"
   inkscape:connector-curvature="0"
   style="fill:#c3f1ff;stroke:none;stroke-width:34;stroke-linecap:butt" />
				</g>
				<g
   id="shape485-17"
   transform="translate(22.1994,-16.6586)">
					<title
   id="title52">Sheet.485</title>
					<path
   d="M 12.92,116.98 0,109.29 v 15.42 z"
   class="st5"
   id="path54"
   inkscape:connector-curvature="0"
   style="fill:#9cebff;stroke:none;stroke-width:34;stroke-linecap:butt" />
				</g>
			</g>
		</g>
	</g>
</svg>

<?xml version="1.0" encoding="UTF-8" standalone="no"?>
<!DOCTYPE svg PUBLIC "-//W3C//DTD SVG 1.1//EN" "http://www.w3.org/Graphics/SVG/1.1/DTD/svg11.dtd">
<!-- Generated by Microsoft Visio, SVG Export Virtual Machine Image Definition.svg Page-1 -->
<svg xmlns="http://www.w3.org/2000/svg" xmlns:xlink="http://www.w3.org/1999/xlink" xmlns:ev="http://www.w3.org/2001/xml-events"
		width="1.73185in" height="1.73206in" viewBox="0 0 124.693 124.709" xml:space="preserve" color-interpolation-filters="sRGB"
		class="st6">
	<style type="text/css">
	<![CDATA[
		.st1 {fill:url(#grad0-6);stroke:none;stroke-linecap:butt;stroke-width:34}
		.st2 {fill:#773adc;stroke:none;stroke-linecap:butt;stroke-width:34}
		.st3 {fill:#50e6ff;stroke:none;stroke-linecap:butt;stroke-width:34}
		.st4 {fill:#c3f1ff;stroke:none;stroke-linecap:butt;stroke-width:34}
		.st5 {fill:#9cebff;stroke:none;stroke-linecap:butt;stroke-width:34}
		.st6 {fill:none;fill-rule:evenodd;font-size:12px;overflow:visible;stroke-linecap:square;stroke-miterlimit:3}
	]]>
	</style>

	<defs id="Patterns_And_Gradients">
		<linearGradient id="grad0-6" x1="0" y1="0" x2="1" y2="0" gradientTransform="rotate(-90 0.5 0.5)">
			<stop offset="0" stop-color="#32bedd" stop-opacity="1"/>
			<stop offset="0.36" stop-color="#34c1e0" stop-opacity="1"/>
			<stop offset="0.63" stop-color="#3ccbe8" stop-opacity="1"/>
			<stop offset="0.88" stop-color="#48dbf6" stop-opacity="1"/>
			<stop offset="1" stop-color="#50e6ff" stop-opacity="1"/>
		</linearGradient>
	</defs>
	<g>
		<title>Page-1</title>
		<g id="group477-1" transform="translate(34,-34.0157)">
			<title>Virtual Machine Image Definition</title>
			<g id="group478-2">
				<title>Icon-compute-37</title>
				<g id="shape479-3">
					<title>Sheet.479</title>
					<path d="M0 122.83 A1.84177 1.88085 -180 0 0 1.84 124.71 L42.52 124.71 A1.84177 1.88085 -180 0 0 44.37 122.83
								 L44.37 69.9 A1.84177 1.88085 -180 0 0 42.52 68.02 L1.84 68.02 A1.84177 1.88085 -180 0 0 0 69.9 L0
								 122.83 Z" class="st1"/>
				</g>
				<g id="shape480-7" transform="translate(23.6136,-3.325)">
					<title>Sheet.480</title>
					<path d="M32.95 111.04 L23.51 101.4 a0.493319 0.503788 -180 0 0 -0.822199 0.335858 L22.69 107.38 C11.35 107.38
								 0 113.56 0 124.71 C1.61 122.22 9.87 115.61 22.69 115.61 L22.69 121.01 a0.493319 0.503788 -180 0
								 0 0.822199 0.335858 L32.95 111.71 a0.493319 0.503788 -180 0 0 8.52651E-14 -0.671717 Z" class="st2"/>
				</g>
				<g id="shape481-9" transform="translate(22.1994,-16.6586)">
					<title>Sheet.481</title>
					<path d="M12.92 101.6 L12.92 116.98 L0 124.71 L0 109.29 L12.92 101.6 Z" class="st3"/>
				</g>
				<g id="shape482-11" transform="translate(9.24152,-32.0409)">
					<title>Sheet.482</title>
					<path d="M25.88 116.98 L12.96 124.71 L0 116.98 L12.96 109.26 L25.88 116.98 Z" class="st4"/>
				</g>
				<g id="shape483-13" transform="translate(9.24152,-16.6586)">
					<title>Sheet.483</title>
					<path d="M12.96 109.33 L12.96 124.71 L0 116.98 L0 101.6 L12.96 109.33 Z" class="st5"/>
				</g>
				<g id="shape484-15" transform="translate(9.24152,-16.6586)">
					<title>Sheet.484</title>
					<path d="M0 116.98 L12.96 109.29 L12.96 124.71 L0 116.98 Z" class="st4"/>
				</g>
				<g id="shape485-17" transform="translate(22.1994,-16.6586)">
					<title>Sheet.485</title>
					<path d="M12.92 116.98 L0 109.29 L0 124.71 L12.92 116.98 Z" class="st5"/>
				</g>
			</g>
		</g>
	</g>
</svg>
